.local/share/icons/Gruvbox-Plus-Dark/mimetypes/scalable/application-x-scribus.svg

<svg width="256" height="256" viewBox="0 0 256 256" fill="none" xmlns="http://www.w3.org/2000/svg">
<g opacity="0.4" filter="url(#filter0_f)">
<path d="M55.0839 15.5636H155.608L216.009 75.7129L216.011 224.609C216.011 233.52 208.749 240.737 199.838 240.737H55.0838C46.1734 240.737 39 233.564 39 224.654V31.6474C39 22.737 46.1734 15.5636 55.0838 15.5636H55.0839Z" fill="#282828"/>
</g>
<path d="M55.0839 15H155.608L216.009 75.1493L216.011 224.045C216.011 232.956 208.749 240.174 199.838 240.174H55.0838C46.1734 240.174 39 233 39 224.09V31.0838C39 22.1734 46.1734 15 55.0838 15H55.0839Z" fill="#ebdbb2"/>
<path fill-rule="evenodd" clip-rule="evenodd" d="M155.608 20.3191H55.0839C49.1112 20.3191 44.3191 25.1111 44.3191 31.0838V224.09C44.3191 230.063 49.1111 234.855 55.0838 234.855H199.838C205.83 234.855 210.692 229.999 210.692 224.046V75.1493L155.608 20.3191ZM155.608 15H55.0839C46.1735 15 39 22.1734 39 31.0838V224.09C39 233 46.1734 240.174 55.0838 240.174H199.838C208.749 240.174 216.011 232.956 216.011 224.045L216.009 75.1493L155.608 15Z" fill="url(#paint0_linear)"/>
<path fill-rule="evenodd" clip-rule="evenodd" d="M151.561 68.2605C148.32 67.9005 145.718 67.8962 143.33 68.357C140.943 68.8187 138.731 69.9437 137.418 71.3569C136.106 72.7712 135.691 74.163 135.486 74.838C130.857 83.823 125.385 92.7448 120.376 100.38C114.194 109.433 106.981 119.974 103.217 128.475C100.93 133.669 98.4577 139.928 96.0292 146.449C90.9791 160.118 86.4288 173.776 82 187.508C89.2076 188 89.2076 187.962 94.7661 188C98.861 180.571 105.649 173.51 111.33 168.35C121.158 159.484 135.339 150.421 148.882 148.396L153.444 147.724C153.697 133.721 154.992 118.564 161.992 106.287C164.865 101.182 168.868 97.128 172.579 92.493C173.535 91.7323 172.785 90.8323 172.887 90.003C170.117 76.4098 160.725 69.663 151.827 68.2937C151.728 68.3087 151.637 68.2723 151.557 68.2605H151.561Z" fill="url(#paint1_linear)"/>
<path opacity="0.25" d="M155.608 17V61.2306C155.608 70.141 162.867 77.1605 171.777 77.1605L216.009 77.1493V75.1493L155.608 17Z" fill="#282828"/>
<path d="M155.608 15V59.2306C155.608 68.141 162.867 75.1605 171.777 75.1605L216.009 75.1493L155.608 15Z" fill="url(#paint2_linear)"/>
<defs>
<filter id="filter0_f" x="23.8778" y="0.441412" width="207.255" height="255.418" filterUnits="userSpaceOnUse" color-interpolation-filters="sRGB">
<feFlood flood-opacity="0" result="BackgroundImageFix"/>
<feBlend mode="normal" in="SourceGraphic" in2="BackgroundImageFix" result="shape"/>
<feGaussianBlur stdDeviation="7.5611" result="effect1_foregroundBlur"/>
</filter>
<linearGradient id="paint0_linear" x1="39" y1="15" x2="39" y2="240.174" gradientUnits="userSpaceOnUse">
<stop offset="1e-07" stop-color="#458588"/>
<stop offset="1" stop-color="#076678"/>
</linearGradient>
<linearGradient id="paint1_linear" x1="82" y1="68" x2="82" y2="188" gradientUnits="userSpaceOnUse">
<stop offset="1e-07" stop-color="#458588"/>
<stop offset="1" stop-color="#076678"/>
</linearGradient>
<linearGradient id="paint2_linear" x1="155.608" y1="15" x2="155.608" y2="75.1605" gradientUnits="userSpaceOnUse">
<stop offset="1e-07" stop-color="#458588"/>
<stop offset="1" stop-color="#076678"/>
</linearGradient>
</defs>
</svg>

<svg width="256" height="256" fill="none" version="1.1" viewBox="0 0 256 256" xmlns="http://www.w3.org/2000/svg">
  <path d="m55.08 15h100.5l60.4 60.15 2e-3 148.9c0 8.911-7.262 16.13-16.17 16.13h-144.8c-8.91 0-16.08-7.174-16.08-16.08v-193c0-8.91 7.173-16.08 16.08-16.08h1e-4z" fill="#ebdbb2"/>
  <path d="m155.6 20.32h-100.5c-5.973 0-10.76 4.792-10.76 10.76v193c0 5.973 4.792 10.76 10.76 10.76h144.8c5.992 0 10.85-4.856 10.85-10.81v-148.9l-55.08-54.83zm0-5.319h-100.5c-8.91 0-16.08 7.173-16.08 16.08v193c0 8.91 7.173 16.08 16.08 16.08h144.8c8.911 0 16.17-7.218 16.17-16.13l-2e-3 -148.9-60.4-60.15z" clip-rule="evenodd" fill="url(#paint0_linear)" fill-rule="evenodd"/>
  <path d="m151.6 68.26c-3.241-0.36-5.843-0.3643-8.231 0.0965-2.387 0.4617-4.599 1.587-5.912 3-1.312 1.414-1.727 2.806-1.932 3.481-4.629 8.985-10.1 17.91-15.11 25.54-6.182 9.053-13.4 19.59-17.16 28.1-2.287 5.194-4.759 11.45-7.188 17.97-5.05 13.67-9.6 27.33-14.03 41.06 7.208 0.492 7.208 0.454 12.77 0.492 4.095-7.429 10.88-14.49 16.56-19.65 9.828-8.866 24.01-17.93 37.55-19.95l4.562-0.672c0.253-14 1.548-29.16 8.548-41.44 2.873-5.105 6.876-9.159 10.59-13.79 0.956-0.7607 0.206-1.661 0.308-2.49-2.77-13.59-12.16-20.34-21.06-21.71-0.099 0.015-0.19-0.0214-0.27-0.0332h4e-3z" clip-rule="evenodd" fill="url(#paint1_linear)" fill-rule="evenodd"/>
  <path d="m155.6 17v44.23c0 8.91 7.259 15.93 16.17 15.93l44.23-0.0112v-2l-60.4-58.15z" fill="#282828" opacity=".25"/>
  <path d="m155.6 15v44.23c0 8.91 7.259 15.93 16.17 15.93l44.23-0.0112-60.4-60.15z" fill="url(#paint2_linear)"/>
  <defs>
    <linearGradient id="paint0_linear" x1="39" x2="39" y1="15" y2="240.2" gradientUnits="userSpaceOnUse">
      <stop stop-color="#458588" offset="1e-7"/>
      <stop stop-color="#076678" offset="1"/>
    </linearGradient>
    <linearGradient id="paint1_linear" x1="82" x2="82" y1="68" y2="188" gradientUnits="userSpaceOnUse">
      <stop stop-color="#458588" offset="1e-7"/>
      <stop stop-color="#076678" offset="1"/>
    </linearGradient>
    <linearGradient id="paint2_linear" x1="155.6" x2="155.6" y1="15" y2="75.16" gradientUnits="userSpaceOnUse">
      <stop stop-color="#458588" offset="1e-7"/>
      <stop stop-color="#076678" offset="1"/>
    </linearGradient>
  </defs>
</svg>
